brandFactory_export/2.Regular/Tablet _2Regular.svg

<?xml version="1.0" encoding="UTF-8"?>
<svg width="24px" height="24px" viewBox="0 0 24 24" version="1.1" xmlns="http://www.w3.org/2000/svg" xmlns:xlink="http://www.w3.org/1999/xlink">
    <title>2.Regular/Tablet _2Regular</title>
    <g id="Symbols" stroke="none" stroke-width="1" fill="none" fill-rule="evenodd">
        <g id="2.Regular/Tablet-_2Regular" fill="#5CB615" fill-rule="nonzero">
            <path d="M16.7176471,22.1478992 C17.9042017,22.1478992 19.3193277,21.6436975 19.3193277,19.2504202 L19.3193277,19.210084 L4.47563025,19.210084 L4.47563025,19.2504202 C4.47563025,19.3109244 4.47226891,19.3714286 4.46554622,19.4319328 C4.46554622,19.4319328 4.35462185,20.6184874 5.01344538,21.3747899 C5.45714286,21.8823529 6.21680672,22.1411765 7.27226891,22.1411765 L16.5294118,22.1378151 C16.5663866,22.1378151 16.6033613,22.1378151 16.6436975,22.1411765 L16.7176471,22.1478992 L16.7176471,22.1478992 Z M5.53109244,1.89579832 C5.26890756,2.05714286 4.47563025,2.5512605 4.47563025,4.34621849 L4.47563025,17.7344538 L19.3193277,17.7344538 C19.3193277,12.6521008 19.312605,4.33277311 19.312605,4.33277311 C19.312605,4.28907563 19.3159664,4.24537815 19.3193277,4.19831933 C19.3193277,4.19831933 19.3932773,2.98151261 18.7042017,2.21512605 C18.2605042,1.72773109 17.5344538,1.4789916 16.5495798,1.4789916 L7.2487395,1.4789916 C7.21512605,1.4789916 7.18487395,1.47563025 7.1512605,1.47563025 L7.10084034,1.47563025 C6.88907563,1.47563025 6.15294118,1.50588235 5.53109244,1.89579832 Z M20.7378151,4.32941176 C20.7378151,4.32941176 20.7445378,14.5378151 20.7445378,19.2470588 C20.7445378,23.3579832 17.5344538,23.6201681 16.7142857,23.6201681 C16.5932773,23.6201681 16.5260504,23.6168067 16.5260504,23.6168067 C16.5260504,23.6168067 12.0184874,23.6201681 7.26890756,23.6201681 C2.51932773,23.6201681 3.04369748,19.2504202 3.04369748,19.2504202 L3.04369748,4.34621849 C3.04705882,0.231932773 6.3512605,0 7.09747899,0 C7.19159664,0 7.24537815,0.00336134454 7.24537815,0.00336134454 L16.5462185,0 C21.1176471,0.00336134454 20.7378151,4.32941176 20.7378151,4.32941176 Z M11.887395,19.805042 C12.4352941,19.805042 12.7647059,20.1445378 12.7647059,20.7159664 C12.7647059,20.994958 12.687395,21.2168067 12.5361345,21.3781513 C12.3815126,21.5394958 12.1596639,21.6268908 11.887395,21.6268908 C11.6151261,21.6268908 11.3932773,21.5428571 11.2386555,21.3781513 C11.087395,21.2168067 11.010084,20.994958 11.010084,20.7159664 C11.010084,20.1445378 11.3394958,19.805042 11.887395,19.805042 Z" id="Tablet-_2Regular"></path>
        </g>
    </g>
</svg>

<svg width="24" height="24" viewBox="0 0 24 24" xmlns="http://www.w3.org/2000/svg"><path d="M16.718 22.148c1.186 0 2.601-.504 2.601-2.898v-.04H4.476v.04c0 .06-.004.121-.01.182 0 0-.111 1.186.547 1.943.444.507 1.204.766 2.26.766l9.256-.003c.037 0 .074 0 .115.003l.074.007zM5.53 1.896c-.262.161-1.055.655-1.055 2.45v13.388h14.843c0-5.082-.006-13.401-.006-13.401 0-.044.003-.088.006-.135 0 0 .074-1.216-.615-1.983-.443-.487-1.17-.736-2.154-.736H7.249c-.034 0-.064-.003-.098-.003h-.05c-.212 0-.948.03-1.57.42zm15.207 2.433s.007 10.209.007 14.918c0 4.111-3.21 4.373-4.03 4.373-.122 0-.189-.003-.189-.003s-4.508.003-9.257.003c-4.75 0-4.225-4.37-4.225-4.37V4.346C3.047.232 6.35 0 7.097 0c.095 0 .148.003.148.003L16.546 0c4.572.003 4.192 4.33 4.192 4.33zm-8.85 15.476c.547 0 .877.34.877.911 0 .279-.078.5-.229.662-.154.161-.376.249-.649.249-.272 0-.494-.084-.648-.249-.152-.161-.229-.383-.229-.662 0-.571.33-.911.877-.911z" fill="#5CB615" fill-rule="nonzero"/></svg>
